!!!OTL: R&szlig;d&szlig;i na scad&szlig;n, S. 44
!!!id: I0506
**kern
*clefG2
*k[b-]
*C:
{8g
8a
=1
4b-
4a
4cc
=2
2b-
4a
=3
2g
4g
=4
2a
8cc
8cc
=5
[2.cc
=6
4cc]}
4r
=7
{8cc
8cc
=8
4dd
4cc
4b-
=9
2a
8g
8a
=10
4g
4f
4d
=11
8d
4.c
4c
=12
[2.c
=13
4c]}
4r
=14
{8g
8f
=15
4e
4d
4f
=16
2e
8d
8c
=17
2d
4f
=18
8g
4.g
4f
=19
[2.d
=20
4d]}
4r
=21
{8e
8f
=22
4g
4a
4b-
=23
4b-
4a
8g
8a
=24
4g
4f
4d
=25
8d
4.c
4c
=26
[2.c
=27
4c]}
4r
==
*-
!!!minrhy: 8
!!!meters: 3/4 ]  ZZ[4
!!!cut: R&szlig;d&szlig;i na scad&szlig;n, S. 44
!!!reg: Irland
!!!trd: O BOYLE, Sean: 25 Irish Folksongs, Dublin 1976
!!!rhy1: XX  X_X_X_  X__X_  X__X_  X__XX  X__.  ^_0_
!!!rhy2: XX  X_X_X_  X__XX  X_X_X_  XX_.X_  X__.  ^_0_
!!!key: I0506  08  C 3/4 ]  ZZ[4
!!!mod: HEPTATONIK MIXOLYDISCH]  AMBITUS[9
!!!kad: +1121
!!!akz: 7b7b56+1+1_+265211_332522_57b5211_
!!!fot: 'a__b__c__bw_
!!!for: 'a__b__c__d__
!!!fok: '~a_\__Sd_^d_
!! PHRAS[AUFTAKTIG]
!!!fkt: erz&auml;hlendes Lied 
!! IRISCHE VKL.
!! PR[25] 2K[11] 2G[18] 3K[4] 3G[2] 4A[0] 4Ü[0] 5A[2] 6K[0] 6G[0]
!! 7K[0] 7G[2] 8A[0] MEHR[0] SI[37] ABS[57] SR[28] SP[9]
!! ST[16] 2k[4] 2g[21] 3k[11] 3g[0] 4d[4] 4ü[0] 5d[0] 6k[0] 6g[0]
!! 7k[0] 7g[0] 8d[0] mehr[0] si[39] dm[-2] sr[25] sp[14]
!! 1F[45] 2F[28] 3F[22] 4F[0] LF[0] 2P[0] 3P[5] 4P[0] TRI[0] DF[4] AB[58]
!! TF[0] U3K[0] U3[0] U4[0] U4Ü[0] U5[0] U6K[0] U6[0] U7K[0] U7[0]
!! N1[9] N2K[0] N2[10] N3K[0] N3[17] N4[0] N4Ü[0] N5[12] N6K[0] N6[7]
!!!n7k: 0] N7[10] O1[28] O2K[0] O2[7] O3K[0] O3[0] HÖ[0
!!!RNB: symbol: &szlig; = sz ligature (UTF-8: ÃŸ)
!!!RNB: symbol: &auml;      = a umlaut  (UTF-8: Å„)
